!!!!SEGMENT: sonata29-3.krn
!!!COM: Haydn, Franz Joseph
!!!CDT: 1732/03/31-1809/05/31
!!!CNT: Austrian
!!!OTL: Sonata No. 29 in E-flat major
!!!SCT: Hob. XVI:45
!!!OMV: 3
!!!OMD: Finale: Allegro di molto.
!!!ODT: 1765-1767
**kern	**kern	**dynam
*staff2	*staff1	*staff1/2
*>[A,A,B,B]	*>[A,A,B,B]	*>[A,A,B,B]
*>norep[A,B]	*>norep[A,B]	*>norep[A,B]
*>A	*>A	*>A
*clefF4	*clefG2	*clefG2
*k[b-e-a-]	*k[b-e-a-]	*k[b-e-a-]
*E-:	*E-:	*E-:
*M3/4	*M3/4	*M3/4
*MM144	*MM144	*MM144
=1-	=1-	=1-
2E- 2G	8r	p
.	8b-`L	.
.	(8b-	.
.	8ee-)	.
*clefG2	*	*
(4g	(8ee-	.
.	8ddJ)	.
=2	=2	=2
8a-)	8r	.
8r	8cc	.
8g	8r	.
8r	8b-	.
8f	8r	.
8r	8a-	.
=3	=3	=3
2e-	8r	.
.	8g`L	.
.	(8b-	.
.	8ee-)	.
(4g	(8ee-	.
.	8ddJ)	.
=4	=4	=4
8a-)	16r	.
.	(16ccLL	.
8r	16bn	.
.	16ccJJ)	.
8g	16r	.
.	(16b-LL	.
8r	16an	.
.	16b-JJ)	.
8f	16r	.
.	(16a-LL	.
8r	16g	.
.	16a-JJ)	.
=5	=5	=5
4e-	16r	f
.	(16gLL<	.
.	16a-	.
.	16b-JJ	.
4r	16ccLL	.
.	16dd	.
.	16ee-	.
.	16ffJJ	.
4r	16ggLL	.
.	16ee-	.
.	16dd	.
.	16ccJJ	.
*clefF4	*	*
!!LO:LB:g=z
=6	=6	=6
8r	2b-	.
!	!	!LO:DY:b=2:rj
(16E-LL	.	f
16FJJ	.	.
8G`L)	.	.
8E-`	.	.
8F`	4a-T	.
8BB-`J	.	.
.	g16q/LL	.
.	a-16q/JJ	.
=7	=7	=7
4E-	16g`LL)	mf
.	(16e-	.
.	16d	.
.	16e-JJ	.
4r	16fLL	.
.	16e-	.
.	16d	.
.	16e-JJ	.
4GG`	16gLL	.
.	16f	.
.	16e-	.
.	16dJJ	.
=8	=8	=8
4AA-`	16c`LL)	.
.	(16a-	.
.	16cc	.
.	16b-JJ	.
4r	16a-LL	.
.	16g	.
.	16f	.
.	16e-JJ	.
4BB-`	16dLL	.
.	16c	.
.	16B-	.
.	16A-JJ	.
=9	=9	=9
4E-`	16G`LL)	.
.	(16e-	.
.	16d	.
.	16e-JJ	.
4r	16fLL	.
.	16e-	.
.	16d	.
.	16e-JJ	.
4GG`	16gLL	.
.	16f	.
.	16e-	.
.	16dJJ	.
=10	=10	=10
4AA-`	16c`LL)	.
.	(16a-	.
.	16cc	.
.	16b-JJ	.
4r	16a-LL	.
.	16g	.
.	16f	.
.	16e-JJ	.
4BB-`	16dLL	.
.	16c	.
.	16B-	.
.	16A-JJ	.
!!LO:LB:g=z
=11	=11	=11
16r	8G)	.
(16E-LL	.	.
16F	8r	.
16GJJ	.	.
16A-LL	4r	.
16B-	.	.
16c	.	.
16dJJ	.	.
16e-LL	4r	.
16f	.	.
16g	.	.
16fJJ	.	.
=12	=12	=12
4e-`)	8r	.
.	(8gL	p
4r	8gg)	.
.	8gg`	.
4e-`	(8bn	.
.	8ccJ)	.
=13	=13	=13
4d`	8r	.
.	(8fL	.
4r	8ff)	.
.	8ff`	.
4d`	(8an	.
.	8b-XJ)	.
=14	=14	=14
4e-`	16r	.
.	16gLL	.
.	16dd	.
.	16bnJJ	.
*clefG2	*	*
8cc^	16r	.
.	16gLL	.
8r	16ee-	.
.	16ccJJ	.
*clefF4	*	*
4e-`	16r	.
.	16gLL	.
.	16gg	.
.	16ee-JJ	.
=15	=15	=15
4d`	16r	.
.	16fLL<	.
.	16cc	.
.	16anJJ	.
*clefG2	*	*
8b-X	16r	.
.	16fLL<	.
8r	16dd	.
.	16b-JJ	.
*clefF4	*	*
4d`	16r	.
.	16fLL	.
.	16ff	.
.	16ddJJ	.
!!LO:LB:g=z
=16	=16	=16
4An`	16r	.
.	16fLL	.
.	16cc	.
.	16ee-JJ	.
*clefG2	*	*
4an`	16r	.
.	16fLL	.
.	16cc	.
.	16ee-JJ	.
4b-`	16r	<
.	16fLL<	.
.	16b-	.
.	16ddJJ	.
=17	=17	=17
4An`	16r	.
.	16fLL	.
.	16cc	.
.	16ee-JJ	.
4an`	16r	.
.	16fLL	.
.	16cc	.
.	16ee-JJ	.
4b-`	16r	.
.	16fLL<	.
.	16b-	.
.	16ddJJ	.
=18	=18	=18
4An`	16r	.
.	16fLL	.
.	16cc	.
.	16ee-JJ	.
4an`	16r	.
.	16fLL	.
.	16cc	.
.	16ee-JJ	.
4b-`	16r	.
.	16fLL<	.
.	16b-	.
.	16ddJJ	.
*clefF4	*	*
=19	=19	=19
*^	*	*
(4B-	2F	(4ddm	>
4An)	.	4cc)	]
4r	4ryy	4r	.
*v	*v	*	*
=20	=20	=20
4BBB- 4BB-	16r	f
.	(16B-'LL	.
.	16B-'	.
.	16B-'JJ)	.
4DD 4D	16r	.
.	(16d'LL	.
.	16d'	.
.	16d'JJ)	.
4FF 4F	16r	.
.	(16f'LL	.
.	16f'	.
.	16f'JJ)	.
!!LO:LB:g=z
=21	=21	=21
4BB- 4B-	16r	.
.	(16b-LL	.
.	16an	.
.	16b-JJ	.
4r	16ddLL	.
.	16b-	.
.	16a	.
.	16gJJ	.
4r	16fLL	.
.	16e-	.
.	16d	.
.	16cJJ	.
=22	=22	=22
4BBB- 4BB-	16B-`LL)	.
.	(16B-'	.
.	16B-'	.
.	16B-'JJ)	.
4DD 4D	16r	.
.	(16d'LL	.
.	16d'	.
.	16d'JJ)	.
4FF 4F	16r	.
.	(16f'LL	.
.	16f'	.
.	16f'JJ)	.
=23	=23	=23
4BB- 4B-	16r	.
.	(16b-LL	.
.	16an	.
.	16b-JJ	.
4r	16ddLL>	.
.	16cc	.
.	16b-	.
.	16aJJ	.
4r	16gLL	.
.	16f	.
.	16e-	.
.	16dJJ	.
=24	=24	=24
2E- 2G	16c`LL)	.
.	(16ee-	.
.	16dd	>
.	16ee-JJ	.
.	16ggLL	.
.	16ff	.
.	16ee-	.
.	16ddJJ	.
4r	16ccLL<	.
.	16b-	.
.	16an	.
.	16gJJ	]
!!LO:LB:g=z
=25	=25	=25
2F 2c 2e-	16f`LL)	.
.	(16an'	p
.	16a'	.
.	16a'JJ)	.
.	(16ccLL>	.
.	16a)	.
.	(16cc	.
.	16aJJ)	.
4F 4c 4e-	16r	.
.	(16a'LL	.
.	16a'	.
.	16a'JJ)	.
=26	=26	=26
2F 2B- 2d	16r	.
.	(16b-'LL	.
.	16b-'	.
.	16b-'JJ)	.
.	(16ddLL	.
.	16b-)	.
.	(16dd	.
.	16b-JJ)	.
4F 4B- 4d	16r	.
.	(16b-'LL	.
.	16b-'	.
.	16b-'JJ)	.
=27	=27	=27
2F 2An 2c	16r	.
.	(16cc'LL	.
.	16cc'	.
.	16cc'JJ)	.
.	(16ee-LL	.
.	16cc)	.
.	(16ee-	.
.	16ccJJ)	.
4F 4A 4c	16r	.
.	(16cc'LL	.
.	16cc'	.
.	16cc'JJ)	.
=28	=28	=28
2.ryy	16b-	.
.	16dd/	.
.	16an\	<
.	16cc/	.
.	16g\	.
.	16b-/	.
.	16f\	.
.	16an	.
.	16e-\	.
.	16g	.
.	16d\	.
.	16f	.
!!LO:LB:g=z
=29	=29	=29
2.ryy	16b-	.
.	16dd/	.
.	16an\	.
.	16cc/	.
.	16g\	.
.	16b-/	.
.	16f\	.
.	16an	.
.	16e-\	.
.	16g	.
.	16d\	.
.	16f	.
=30	=30	=30
4e-	16r	f
.	(16gLL	.
.	16an	.
.	16bnJJ	.
4r	16ccLL	.
.	16dd	.
.	16ee-	.
.	16ffJJ	.
16r	8gg)	.
(16e-LL	.	.
16E-	8r	.
16e-JJ	.	.
=31	=31	=31
4D)	16r	.
.	(16fLL	.
.	16g	.
.	16anJJ	.
4r	16b-XLL	.
.	16cc	.
.	16dd	.
.	16ee-JJ	.
16r	8ff)	.
(16dLL	.	.
16D	8r	.
16dJJ	.	.
=32	=32	=32
4E-)	16r	.
.	(16gLL	.
.	16an	.
.	16bnJJ	.
4r	16ccLL	.
.	16dd	.
.	16ee-	.
.	16ffJJ	.
16r	8gg)	.
(16e-LL	.	.
16E-	8r	.
16e-JJ	.	.
!!LO:LB:g=z
=33	=33	=33
4D)	16r	.
.	(16fLL	.
.	16g	.
.	16anJJ	.
4r	16b-XLL	.
.	16cc	.
.	16dd	.
.	16ee-JJ	.
4r	16ffLL	.
.	16gg	.
.	16aan	.
.	32bb-L	.
.	32cccJJJ	.
=34	=34	=34
2.r	8ddd`)	.
.	8r	.
.	4r	.
.	4r	.
*clefG2	*	*
=35	=35	=35
4en 4b-	(16ccLL	p
.	16een	.
.	16gg	.
.	16ffJJ	.
8r	16eeLL	.
.	16dd	.
8e` 8b-`L	16cc	.
.	16ddJJ	.
8e` 8b-`	16ccLL	.
.	16dd	.
8e` 8b-`J	16cc	.
.	16ddJJ	.
=36	=36	=36
4f 4an	16ccLL	.
.	16een	.
.	16ff	.
.	16eeJJ	.
4r	16ddLL	.
.	16cc	.
.	16b-	.
.	16anJJ	.
4r	16gLL	.
.	16f	.
.	16en	.
.	16dJJ	.
*clefF4	*	*
=37	=37	=37
4En 4B-	(>16cLL)	.
.	16en	mf
.	16g	.
.	16fJJ	.
8r	16eLL	.
.	16d	.
8E` 8B-`L	16c	.
.	16dJJ	.
8E` 8B-`	16cLL	.
.	16d	.
8E` 8B-`J	16c	.
.	16dJJ	.
!!LO:LB:g=z
=38	=38	=38
4F 4An	16cLL	<
.	16f	.
.	16en	.
.	16dJJ	.
4r	16cLL	.
.	16B-	.
.	16An	.
.	16GJJ	.
4r	16FLL	.
.	16G	.
.	16A	.
.	16B-JJ	[[
=39	=39	=39
4FFF 4FF	(>16cLL)	f
.	16An	.
.	16c	.
.	16dJJ	.
8r	16e-XLL	.
.	16c	.
8F`L	16cc	.
.	16b-JJ	.
8G`	16anLL	.
.	16g	.
8An`J	16f	.
.	16e-JJ	.
=40	=40	=40
4B-'^^	(16dLL)	.
.	16f	.
.	16e-	.
.	16dJJ	.
4c'^^	16e-LL	.
.	16f	.
.	16g	.
.	16anJJ	.
4d'^^	16b-LL	.
.	16cc	.
.	16dd	.
.	16b-JJ	.
=41	=41	=41
*^	*	*
(4e-	4E-	16anLL	.
.	.	16g	.
.	.	16ee-	.
.	.	16ccJJ	.
4d	2F	4b-	>
4c)	.	4at)	]]
.	.	g16q/LL	.
.	.	a16q/JJ	.
*v	*v	*	*
=42	=42	=42
4B-'^^	(16dLL	mf
.	16f	.
.	16e-	.
.	16dJJ	.
4c'^^	16e-LL	.
.	16f	.
.	16g	.
.	16anJJ	.
4d'^^	16b-LL	.
.	16cc	.
.	16dd	.
.	16b-JJ)	.
*clefG2	*	*
!!LO:LB:g=z
=43	=43	=43
8e-`L	(16anLL	.
.	16g	.
8c`J	16ee-	<
.	16ccJJ)	.
8f`L	(16b-LL	.
.	16a	.
8d`J	16ff	.
.	16ddJJ)	.
8g`L	(16ccLL	.
.	16b-	.
8e-`J	16gg	.
.	16ee-JJ)	.
=44	=44	=44
4an	(16ddLL	f
.	16cc	.
.	16ddd	.
.	16cccJJ	.
8r	16bb-LL	.
.	16aan	.
*clefF4	*	*
8F`L	16ccc	.
.	16bb-JJ	.
8G`	16aaLL	.
.	16gg	.
8An`J	16ff	.
.	16ee-JJ	.
=45	=45	=45
4B-'^^	(16ddLL)	.
.	16ff	.
.	16ee-	.
.	16ddJJ	.
4c'^^	16ee-LL	.
.	16ff	.
.	16gg	.
.	16aanJJ	.
4d'^^	16bb-LL	.
.	16ff	.
.	16ee-	.
.	16ddJJ	.
=46	=46	=46
*^	*	*
(4e-	4E-	16ccLL	.
.	.	16gg	.
.	.	16ee-	.
.	.	16ccJJ	.
4d	2F	4b-	.
4c	.	4ant	.
.	.	g16q/LL	.
.	.	a16q/JJ	.
*v	*v	*	*
=47	=47	=47

4B-)	8b-/)	.
!	!	!LO:DY:rj
.	(16d 16fLL	p >
.	16e- 16gJJ	.
4r	8d`) 8f`L	.
.	8c` 8e-`	.
4r	8B-` 8d`	.
.	8An` 8c`J	.
!!LO:LB:g=z
=48	=48	=48
*^	*	*
8r	2BB-	8B-` 8d`	.
16FLL	.	16dLL	.
16GJJ	.	16e-JJ	.
8FL	.	8dL	.
8E-	.	8c	.
!	!	!	!LO:DY:b=2
8D	4FF	8B-	p
8CJ	.	8AnJ	.
*v	*v	*	*
=49	=49	=49
2.BBB- 2.BB-	4An 4C<	.
.	2B- 2D<	.
*	*	*
=50:|!|:	=50:|!|:	=50:|!|:
*>B	*>B	*>B
4BBB- 4BB-	8r	p
.	8ff`L	.
4r	(8ff	.
.	8bb-)	.
*clefG2	*	*
(4dd	(8bb-	.
.	8aanJ)	.
=51	=51	=51
8ee-)	8r	.
8r	8gg	.
8dd	8r	.
8r	8ff	.
8cc	8r	.
8r	8ee-	.
=52	=52	=52
4b-	8r	.
.	8dd`L	.
4r	(8ff	.
.	8bb-)	.
(4dd	(8bb-	.
.	8aanJ)	.
=53	=53	=53
8ee-)	16r	.
.	(16ggLL	.
8r	16ff#	.
.	16ggJJ)	.
8dd	16r	.
.	(16ffnLL	.
8r	16een	.
.	16ffJJ)	.
8cc	16r	.
.	(16ee-LL	.
8r	16dd	.
.	16ee-JJ)	.
!!LO:LB:g=z
=54	=54	=54
4b-	16r	.
.	(16ddLL	f
.	16ee-	.
.	16ffJJ	.
4r	16ggLL	.
.	16aan	.
.	16bb-	.
.	16cccJJ	.
4r	16dddLL	.
.	16bb-	.
.	16aa	.
.	16ggJJ	.
*clefF4	*	*
=55	=55	=55
8r	2ff)	.
!	!	!LO:DY:b=2
(16B-LL	.	f
16cJJ	.	.
8d`L)	.	.
8B-`	.	.
8c`	(4ee-T	.
8F`J	.	.
.	dd16q/LL	.
.	ee-16q/JJ	.
=56	=56	=56
4B-	16dd`LL)	mf
.	(16b-	.
.	16an	.
.	16b-JJ	.
4r	16ccLL	.
.	16b-	.
.	16a	.
.	16b-JJ	.
4D`	16ddLL	.
.	16cc	.
.	16b-	.
.	16aJJ	.
=57	=57	=57
4E-`	16g`LL)	.
.	(16ee-	.
.	16gg	.
.	16ffJJ	.
4r	16ee-LL	.
.	16dd	.
.	16cc	.
.	16b-JJ	.
4F`	16anLL	.
.	16g	.
.	16f	.
.	16e-JJ	.
!!LO:LB:g=z
=58	=58	=58
4BB-`	16d`LL)	.
.	(16b-	.
.	16an	.
.	16b-JJ	.
4r	16ccLL>	.
.	16b-	.
.	16a	.
.	16b-JJ	.
4D`	16ddLL>	.
.	16cc	.
.	16b-	.
.	16aJJ	.
=59	=59	=59
4E-`	16g`LL)	.
.	(16ee-	.
.	16gg	.
.	16ffJJ	.
4r	16ee-LL	.
.	16dd	.
.	16cc	.
.	16b-JJ	.
4F`	16anLL	.
.	16g	.
.	16f	.
.	16e-JJ	.
=60	=60	=60
16r	4d)	.
(16BB-LL	.	.
16C	.	.
16DJJ	.	.
16E-LL	4r	.
16F	.	.
16G	.	.
16AnJJ	.	.
16B-LL	4r	.
16c	.	.
16d	.	.
16cJJ	.	.
=61	=61	=61
4B-)	16r	.
.	(16b-LL	<
.	16cc	.
.	16ddJJ	.
4r	16ee-LL	.
.	16ff	.
.	16gg	.
.	16aanJJ	.
4r	16bb-LL	.
.	16ccc	.
.	16ddd	.
.	16cccJJ	.
*clefG2	*	*
!!LO:LB:g=z
=62	=62	=62
8r	[4bb-)	f
8b-` 8dd-`L	.	.
8b-` 8dd-`	8bb-L]	.
8b-` 8dd-`	8aa-X`	.
8b-` 8dd-`	8gg`	.
8b-` 8dd-`J	8ff`J	.
=63	=63	=63
8r	(4ff	.
8cc`L	.	.
8cc`	8eenL)	.
8cc	8bb-` 8ddd-`	mf
8cc`	8aa-` 8ccc`	.
8cc`J	8gg` 8bb-`J	.
=64	=64	=64
8r	4gg (4bb-	.
8cc`L	.	.
8cc`	8ff 8aa-L)	>
8cc`	8aa-` 8ccc`	.
8cc`	8gg` 8bb-`	.
8cc`J	8ff` 8aa-`J	.
=65	=65	=65
8r	4ff (4aa-	.
8c`L	.	.
8c`	8een 8ggL)	.
8c`	8b-` 8dd-`	.
8c`	8a-` 8cc`	.
8c`J	8g` 8b-`J	.
=66	=66	=66
8r	(4g 4b-	p
8cL	.	.
8c	8f) 8a-L	.
8c	8a-` 8cc`	.
8c	8g` 8b-`	.
8cJ	8f` 8a-`J	.
=67	=67	=67
2c	(4f 4a-M	.
.	4en) 4g	.
4r	4r	.
*clefF4	*	*
!!LO:LB:g=z
=68	=68	=68
[2.AA- [2.C [2.E-X [2.A-	(16aa-LL	f
.	16ccc	.
.	16bb-	.
.	16aa-JJ	.
.	16ggLL	.
.	16ff	.
.	16ee-X	.
.	16dd-JJ	.
.	16ccLL<	.
.	16b-	.
.	16a-	.
.	16gJJ	.
=69	=69	=69
2AA-] 2C] 2E-] 2A-]	16a-LL<	.
.	16cc	.
.	16b-	.
.	16a-JJ	.
.	16gLL	>
.	16f	.
.	16e-	.
.	16d-JJ	.
4r	16cLL	.
.	16B-	.
.	16A-	.
.	16GJJ	]
=70	=70	=70
8r	[4A-)	p
8AA- 8CL	.	.
8AA- 8C	8A-L]	.
8AA- 8C	(8G-	.
8AA- 8C	8e-	.
8AA- 8CJ	8G-J)	.
=71	=71	=71
8r	[4G-	.
8AAn 8CL	.	.
8AA 8C	8G-L]	.
8AA 8C	(8F	.
8AA 8C	8e-	.
8AA 8CJ	8cJ	.
=72	=72	=72
8r	[4d-)	.
8BB- 8FL<	.	.
8BB- 8F	8d-L]	.
8BB- 8F	(8B-	.
8BB- 8D-	8f	.
8BB- 8FJ	8A-J)	.
=73	=73	=73
8r	[4A-	.
8BBn 8FL<	.	.
8BB 8F	8A-L]	.
8BB 8F	(8G	.
8BB 8Dn	8f	.
8BB 8GJ	8dnJ	.
!!LO:LB:g=z
=74	=74	=74
8r	[4e-)	<
8C 8GL	.	.
8C 8G	8e-L]	.
8C 8G	(8c	.
8C 8E-	8g	.
8C 8GJ	8e-J	.
=75	=75	=75
8r	[4a-)	.
8FF 8FL	.	.
8FF 8F	8a-L]	.
8FF 8F	(8f	.
8FF 8F	8d	.
8FF# 8F#J	8cJ)	.
=76	=76	=76
4GGG 4GG	16r	f
.	(16G'LL	.
.	16G'	.
.	16G'JJ)	.
4BBBn 4BBn	16r	.
.	(16Bn'LL	.
.	16B'	.
.	16B'JJ)	.
4DD 4D	16r	.
.	(16d'LL	.
.	16d'	.
.	16d'JJ)	.
=77	=77	=77
4GG 4G	8r	.
.	(16gLL	.
.	16anJJ	.
4r	16bnLL<	<
.	16g	.
.	16b	.
.	16ccJJ	.
4r	16ddLL	.
.	16b	.
.	16dd	.
.	16ee-XJJ	.
=78	=78	=78
4GGG 4GG	16ffLL	[
.	16dd	.
.	16bbn	.
.	16cccJJ	.
8r	16dddLL	.
.	16ccc	.
8G`L	16bb	.
.	16aa-XJJ	.
8An`	16ggLL	.
.	16ff	.
8Bn`J	16ee-	.
.	16ddJJ	.
!!LO:LB:g=z
=79	=79	=79
4c'^^	16ee-LL	.
.	16ff	.
.	16gg	.
.	16ffJJ	.
4d'^^	16ee-LL	.
.	16dd	.
.	16cc	.
.	16bnJJ	.
4e-'^^	16ccLL)	.
.	(16bbn	.
.	16ccc	.
.	16ggJJ	.
=80	=80	=80
.	(16bb-XqqP/	.
(4f	8aa-XpL)	.
.	16ggL	.
.	16ffJJ	.
4g	4ee-	>
4G	4ddt	]]
.	cc16q/LL	.
.	dd16q/JJ	.
=81	=81	=81
4c)	8cc)	.
.	(16gLL	p
.	16a-XJJ	.
4r	8g`L)	.
.	8g`	.
4r	8g`	.
.	8g`J	.
=82	=82	=82
*	*^	*
8r	[2.a-	8r	.
(16cLL	.	(16e-LL	.
16dJJ	.	16fJJ	.
8c`L)	.	8e-L)	.
8c`	.	8e-	.
8c`	.	8e-	.
8c`J	.	8e-J	.
*	*v	*v	*
=83	=83	=83
2.B-	8d 8a-L]	.
.	(16f 16a-L	.
.	16g 16b-JJ	.
.	8f`) 8a-`L	.
.	8a-` 8cc`	.
.	8g` 8b-`	.
.	8f` 8a-`J	.
=84	=84	=84
2.BBB- 2.BB-	8r	.
.	(16e- 16gLL	.
.	16f 16a-JJ	.
.	8e-`) 8g`L	<
.	8g` 8b-`	.
.	8f` 8a-`	.
.	8e-` 8g`J	.
!!LO:LB:g=z
=85	=85	=85
2.BBB- 2.BB-	8d` 8f`L	mf
.	8c` 8e-`	.
.	8B-` 8d`	>
.	8A-` 8c`	.
.	8G` 8B-`	.
.	8F` 8A-`J	]
=86	=86	=86
2E- 2G	8r	.
.	8b-`L	p
.	(8b-	.
.	8ee-)	.
*clefG2	*	*
!	!	!LO:DY:b=2
(4g	(8ee-	p
.	8ddJ)	.
=87	=87	=87
8a-)	8r	.
8r	8cc	.
8g	8r	.
8r	8b-	.
8f	8r	.
8r	8a-	.
=88	=88	=88
4e-	16r	.
.	(16gLL	.
.	16b-	.
.	16gJJ	.
4r	16ee-LL	.
.	16b-	.
.	16gg	.
.	16ffJJ	.
(4g	16ee-LL	.
.	16dd	.
.	16cc	.
.	16b-JJ)	.
=89	=89	=89
8a-)	16r	.
.	(16ccLL	<
8r	16bn	.
.	16ccJJ)	.
8g	16r	.
.	(16b-LL<	.
8r	16an	.
.	16b-JJ)	.
8f	16r	.
.	(16a-LL>	.
8r	16g	.
.	16a-JJ)	.
!!LO:LB:g=z
=90	=90	=90
4e-	16r	f
.	(16gLL	.
.	16a-	.
.	16b-JJ	.
4r	16ccLL	.
.	16dd	.
.	16ee-	.
.	16ffJJ	.
4r	16ggLL	.
.	16ee-	.
.	16dd	.
.	16ccJJ	.
*clefF4	*	*
=91	=91	=91
8r	2b-	.
!	!	!LO:DY:b=2:rj
(16E-LL	.	f
16FJJ	.	.
8G`L)	.	.
8E-`	.	.
8F`	4a-T	.
8BB-J	.	.
.	g16q/LL	.
.	a-16q/JJ	.
=92	=92	=92
4E-	16g`LL)	mf
.	(16e-	.
.	16d	.
.	16e-JJ	.
4r	16fLL	.
.	16e-	.
.	16d	.
.	16e-JJ	.
4GG`	16gLL	.
.	16f	.
.	16e-	.
.	16dJJ	.
=93	=93	=93
4AA-`	16c`LL)	.
.	(16a-	.
.	16cc	.
.	16b-JJ	.
4r	16a-LL	.
.	16g	.
.	16f	.
.	16e-JJ	.
4BB-`	16dLL	.
.	16c	.
.	16B-	.
.	16A-JJ	.
=94	=94	=94
4EE-`	16G`LL)	.
.	(16e-	.
.	16d	.
.	16e-JJ	.
4r	16fLL	.
.	16e-	.
.	16d	.
.	16e-JJ	.
4GG`	16gLL	.
.	16f	.
.	16e-	.
.	16dJJ	.
!!LO:LB:g=z
=95	=95	=95
4AA-`	16cLL)	.
.	(16a-	.
.	16cc	.
.	16b-JJ	.
4r	16a-LL	.
.	16g	.
.	16f	.
.	16e-JJ	.
4BB-`	16dLL	.
.	16c	.
.	16B-	.
.	16A-JJ	.
=96	=96	=96
16r	8G)	.
(16E-LL	.	.
16F	8r	.
16GJJ	.	.
16A-LL	4r	.
16B-	.	.
16c	.	.
16dJJ	.	.
16e-LL	4r	.
16f	.	.
16g	.	.
16fJJ	.	.
=97	=97	=97
4e-)	8r	.
.	(8gL	p
4r	8gg)	.
.	8gg`	.
4e-`	(8bn	.
.	8ccJ)	.
=98	=98	=98
4d`	8r	.
.	(8fL	.
4r	8ff)	.
.	8ff`	.
4d`	(8an	.
.	8b-XJ)	.
=99	=99	=99
4c	16r	.
.	16gLL	.
.	16b-	.
.	16ee-JJ	.
8a-`	16r	.
.	16a-XLL	.
8r	16cc	.
.	16ee-JJ	.
4c`	16r	.
.	16ccLL	.
.	16ee-	.
.	16aa-JJ	.
!!LO:LB:g=z
=100	=100	=100
4B-`	16r	.
.	16fLL<	.
.	16a-	.
.	16ddJJ	.
8g`	16r	.
.	16gLL	.
8r	16b-	.
.	16ddJJ	.
4B-`	16r	.
.	16b-LL	.
.	16dd	.
.	16ggJJ	.
=101	=101	=101
4A-`	16r	.
.	16enLL	.
.	16g	.
.	16ccJJ	.
8f`	16r	.
.	16fLL	.
8r	16a-	.
.	16ccJJ	.
4A-`	16r	.
.	16a-LL	.
.	16cc	.
.	16ffJJ	.
=102	=102	=102
4G`	16r	.
.	16dLL	.
.	16f	.
.	16b-JJ	.
8e-`	16r	.
.	16e-XLL	.
8r	16g	.
.	16b-JJ	.
4E-`	16r	.
.	16gLL	.
.	16b-	.
.	16ee-JJ	.
=103	=103	=103
4B-`	16r	.
.	16dLL	.
.	16a-	.
.	16b-JJ	.
4f`	16r	.
.	16dLL	.
.	16a-	.
.	16b-JJ	.
4e-`	16r	.
.	16gLL	.
.	16b-	.
.	16ee-JJ	.
!!LO:LB:g=z
=104	=104	=104
4B-`	16r	.
.	16dLL	.
.	16a-	.
.	16b-JJ	.
4f`	16r	.
.	16dLL	.
.	16a-	.
.	16b-JJ	.
4e-`	16r	.
.	16gLL	.
.	16b-	.
.	16ee-JJ	.
=105	=105	=105
4B-`	16r	.
.	16dLL	.
.	16a-	.
.	16b-JJ	.
4f`	16r	.
.	16dLL	.
.	16a-	.
.	16b-JJ	.
4e-`	16r	.
.	16gLL	.
.	16b-	.
.	16ee-JJ	.
=106	=106	=106
*^	*	*
(4e-	2B-	(4gm	.
4d)	.	4f)	.
4r	4ryy	4r	.
*v	*v	*	*
=107	=107	=107
4EE- 4E-	16r	f
.	(16e-'LL	.
.	16e-'	.
.	16e-'JJ)	.
4GG 4G	16r	.
.	(16g'LL	.
.	16g'	.
.	16g'JJ)	.
4BB- 4B-	16r	.
.	(16b-'LL	.
.	16b-'	.
.	16b-'JJ)	.
=108	=108	=108
4E- 4e-	16r	.
.	(16ee-LL	.
.	16dd	.
.	16ee-JJ	.
4r	16ggLL	.
.	16ee-	.
.	16dd	.
.	16ccJJ	.
4r	16b-LL	.
.	16a-	.
.	16g	.
.	16fJJ	.
!!LO:LB:g=z
=109	=109	=109
4EE- 4E-	16e-`LL)	.
.	(16e-'	.
.	16e-'	.
.	16e-'JJ)	.
4GG 4G	16r	.
.	(16g'LL	.
.	16g'	.
.	16g'JJ)	.
4BB- 4B-	16r	.
.	(16b-'LL	.
.	16b-'	.
.	16b-'JJ)	.
=110	=110	=110
4E- 4e-	16r	.
.	(16ee-LL	.
.	16dd	.
.	16ee-JJ	.
4r	16ggLL	.
.	16ff	.
.	16ee-	.
.	16ddJJ	.
4r	16ccLL<	.
.	16b-	.
.	16a-	.
.	16gJJ	.
=111	=111	=111
2AA- 2C 2F	16f`LL)	.
.	(16a-	.
.	16g	.
.	16a-JJ	.
.	16ccLL	>
.	16b-	.
.	16a-	.
.	16gJJ	.
4r	16fLL	.
.	16e-	.
.	16d	.
.	16cJJ	]]
=112	=112	=112
2BB- 2F 2A-	16B-`LL)	.
.	(16d'	p
.	16d'	.
.	16d'JJ)	.
.	(16fLL	.
.	16d)	.
.	(16f	.
.	16dJJ)	.
4BB- 4F 4A-	16r	.
!	!LO:TX:a:i:t=simile	!
.	(16d'LL	.
.	16d'	.
.	16d'JJ)	.
!!LO:LB:g=z
=113	=113	=113
2BB- 2E- 2G	16r	.
.	(16e-'LL	.
.	16e-'	.
.	16e-'JJ)	.
.	(16gLL	.
.	16e-)	.
.	(16g	.
.	16e-JJ)	.
4BB- 4E- 4G	16r	.
.	(16e-'LL	.
.	16e-'	.
.	16e-'JJ)	.
=114	=114	=114
2BB- 2D 2F	16r	.
.	(16f'LL	.
.	16f'	.
.	16f'JJ)	.
.	(16a-LL	.
.	16f)	.
.	(16a-	.
.	16fJJ)	.
4BB- 4D 4F	16r	.
.	(16f'LL	.
.	16f'	.
.	16f'JJ)	.
=115	=115	=115
2.ryy	16e-\	.
.	16g	.
.	16d\	.
.	16f	<
.	16c\	.
.	16e-	.
.	16B-\	.
.	16d	.
.	16A-\	.
.	16c	.
.	16G\	.
.	16B-	.
=116	=116	=116
2.ryy	16e-\	.
.	16g	.
.	16d\	.
.	16f	.
.	16c\	.
.	16e-	.
.	16B-\	.
.	16d	.
.	16A-\	.
.	16c	.
.	16G\	.
.	16B-	.
!!LO:LB:g=z
=117	=117	=117
4A-	16r	.
.	(16cLL	f
.	16d	.
.	16enJJ	.
4r	16fLL	.
.	16g	.
.	16a-	.
.	16b-JJ	.
16r	8cc)	.
(16A-LL	.	.
16AA-	8r	.
16A-JJ	.	.
=118	=118	=118
4GG)	16r	.
.	(16B-LL	.
.	16c	.
.	16dJJ	.
4r	16e-XLL	.
.	16f	.
.	16g	.
.	16a-JJ	.
16r	8b-/)	.
(16GLL	.	.
16GG	8r	.
16GJJ	.	.
=119	=119	=119
4AA-)	16r	.
.	(16cLL	.
.	16d	.
.	16enJJ	.
4r	16fLL	.
.	16g	.
.	16a-	.
.	16b-JJ	.
16r	8cc)	.
(16A-LL	.	.
16AA-	8r	.
16A-JJ	.	.
=120	=120	=120
4GG)	16r	.
.	(16B-LL	.
.	16c	.
.	16dJJ	.
4r	16e-XLL	.
.	16f	.
.	16g	.
.	16a-JJ	.
4r	16b-LL	.
.	16cc	.
.	16dd	.
.	32ee-L	.
.	32ffJJJ	.
=121	=121	=121
2.r	8gg`)	.
.	8r	.
.	4r	.
.	4r	.
*clefG2	*	*
!!LO:LB:g=z
=122	=122	=122
4an 4ee-	(16ffLL	p
.	16aan	.
.	16ccc	.
.	16bb-JJ	.
8r	16aaLL	.
.	16gg	.
8a` 8ee-`L	16ff	.
.	16ggJJ	.
8a` 8ee-`	16ffLL	.
.	16gg	.
8a` 8ee-`J	16ff	.
.	16ggJJ	.
=123	=123	=123
4b- 4dd	16ffLL	.
.	16aan	.
.	16bb-	.
.	16aaJJ	.
4r	16ggLL	.
.	16ff	.
.	16ee-	.
.	16ddJJ	.
4r	16ccLL<	.
.	16b-	.
.	16an	.
.	16gJJ	.
*clefF4	*	*
=124	=124	=124
4An 4e-	(>16fLL)	mf
.	16an	.
.	16cc	.
.	16b-JJ	.
8r	16aLL	.
.	16g	.
8A` 8e-`L	16f	.
.	16gJJ	.
8A` 8e-`	16fLL	.
.	16g	.
8A` 8e-`J	16f	.
.	16gJJ	.
=125	=125	=125
4B- 4d	16fLL	.
.	16b-	.
.	16an	.
.	16gJJ	.
4r	16fLL	.
.	16e-	.
.	16d	.
.	16cJJ	.
4r	16B-LL	.
.	16c	.
.	16d	.
.	16e-JJ	.
!!LO:LB:g=z
=126	=126	=126
4BBB- 4BB-	16fLL	f
.	16d	.
.	16f	.
.	16gJJ	.
8r	16a-XLL	.
.	16g	.
8BB-`L	16f	.
.	16e-JJ	.
8C`	16dLL	.
.	16c	.
8D`J	16B-	.
.	16A-JJ	.
=127	=127	=127
4E-'^^	16GLL	.
.	16B-	.
.	16A-	.
.	16GJJ	.
4F'^^	16A-LL	.
.	16B-	.
.	16c	.
.	16dJJ	.
4G'^^	16e-LL	.
.	16f	.
.	16g	.
.	16e-JJ	.
=128	=128	=128
*^	*	*
(4A-	4AA-	16dLL	.
.	.	16c	.
.	.	16a-	.
.	.	16fJJ	.
4G	2BB-	4e-	.
4F)	.	4dt)	.
.	.	c16q/LL	.
.	.	d16q/JJ	.
*v	*v	*	*
=129	=129	=129
4E-'^^	(16GLL	.
.	16B-	.
.	16A-	.
.	16GJJ	.
4F'^^	16A-LL	.
.	16B-	.
.	16c	.
.	16dJJ	.
4G'^^	16e-LL	.
.	16f	.
.	16g	.
.	16e-JJ	.
=130	=130	=130
8A-`L	16d^LL	.
.	16c	.
8F`J	16a-	.
.	16fJJ	.
8B-`L	16e-^LL	.
.	16d	.
8G`J	16b-	.
.	16gJJ	.
8c`L	16f^LL	.
.	16e-	.
8A-`J	16cc	.
.	16a-JJ	.
!!LO:LB:g=z
=131	=131	=131
4d	16gLL	.
.	16f	.
.	16gg	.
.	16ffJJ	.
8r	16ee-LL	.
.	16dd	.
8B-`L	16ff	.
.	16ee-JJ	.
8c`	16ddLL	.
.	16cc	.
8d`J	16b-	.
.	16a-JJ	.
=132	=132	=132
4e-'^^	16gLL	.
.	16b-	.
.	16a-	.
.	16gJJ	.
4f'^^	16a-LL	.
.	16b-	.
.	16cc	.
.	16ddJJ	.
4g'^^	16ee-LL	.
.	16ff	.
.	16gg	.
.	16ee-JJ	.
=133	=133	=133
(<4A- 4e-	16ddLL	.
.	16cc	.
.	16ccc	.
.	16aa-JJ	.
4B- 4e-)	4gg	.
(4B- 4d	4ffT	.
.	ee-16q/LL	.
.	ff16q/JJ	.
=134	=134	=134
4e-)	8ee-)	.
.	(16g 16b-LL	>
.	16a- 16ccJJ	.
4r	8g`) 8b-`L	.
.	8f` 8a-`	.
4r	8e-` 8g`	.
.	8d` 8f`J	.
=135	=135	=135
*^	*	*
8ryy	2E-	8e- 8g	.
(16B-LL	.	(16gLL	p
16cJJ	.	16a-JJ	.
8B-L)	.	8g`L)	.
8A-'	.	8f`	.
8G'	4BB-	8e-`	.
8F'J	.	8d`J	.
*v	*v	*	*
=136	=136	=136
2.EE- 2.BB- 2.E-	((4F 4A- 4d	.
.	2G 2e-))	.
==:|!	==:|!	==:|!
*-	*-	*-
!!!RDF**kern: > = above
!!!RDF**kern: < = below
!!!PPR: Universal Edition 1-4
!!!PTL: Haydn Piano Sonatas, Vol. 4, No. 30
!!!YOY: 1901
!!!ONB: Stich und Druck von Jos. Eberle & Co. Wien VII. Seidengasse 3-9
!!!ONM-ue: IV:30.3
!!!YEC: 2021 Craig Stuart Sapp
!!!YEM: Licence: (CC BY-NC-SA 4.0) https://creativecommons.org/licenses/by-nc-sa/4.0
!!!YER: 2021
!!!ENC: Craig Stuart Sapp
!!!END: 2009/02/19/
!!!EED: Craig Stuart Sapp
!!!EEV: 2021/02/01
!!!YEC: 2021 Craig Stuart Sapp
!!!URL: https://github.com/craigsapp/haydn-keyboard-sonatas
!!!URL-vhv: https://verovio.humdrum.org?file=haydn/sonatas/sonata29-3.krn
!!!URL-pdf: https://github.com/craigsapp/haydn-keyboard-sonatas/raw/master/reference-edition/sonata29-3.pdf
!!!title: @{OTL}, mvmt. @{OMV} (@{SCT}), UE @{ONM-ue}
